Numix/48x48/places/default-folder-google-drive.svg

<?xml version="1.0" encoding="UTF-8" standalone="no"?>
<svg
   xmlns:dc="http://purl.org/dc/elements/1.1/"
   xmlns:cc="http://creativecommons.org/ns#"
   xmlns:rdf="http://www.w3.org/1999/02/22-rdf-syntax-ns#"
   xmlns:svg="http://www.w3.org/2000/svg"
   xmlns="http://www.w3.org/2000/svg"
   xmlns:xlink="http://www.w3.org/1999/xlink"
   xmlns:sodipodi="http://sodipodi.sourceforge.net/DTD/sodipodi-0.dtd"
   xmlns:inkscape="http://www.inkscape.org/namespaces/inkscape"
   width="48"
   viewBox="0 0 48 48"
   height="48"
   id="svg2"
   version="1.1"
   inkscape:version="0.48.5 r10040"
   sodipodi:docname="folder-gdrive.svg">
  <metadata
     id="metadata20">
    <rdf:RDF>
      <cc:Work
         rdf:about="">
        <dc:format>image/svg+xml</dc:format>
        <dc:type
           rdf:resource="http://purl.org/dc/dcmitype/StillImage" />
      </cc:Work>
    </rdf:RDF>
  </metadata>
  <defs
     id="defs18">
    <linearGradient
       x2="0"
       gradientUnits="userSpaceOnUse"
       y2="268.33"
       y1="279.096"
       id="linearGradient3017"
       xlink:href="#linearGradient4460"
       gradientTransform="matrix(1.10525,0,0,1.10525,-134.27881,-295.76193)" />
    <linearGradient
       id="linearGradient4460">
      <stop
         id="stop3462"
         style="stop-color:#1b1b1b"
         offset="0" />
      <stop
         id="stop3464"
         style="stop-color:#383838"
         offset="1" />
    </linearGradient>
    <linearGradient
       inkscape:collect="always"
       xlink:href="#linearGradient4460"
       id="linearGradient3501"
       gradientUnits="userSpaceOnUse"
       gradientTransform="matrix(3.9162401,0,0,3.9162401,-553.078,-1047.9741)"
       y1="279.096"
       x2="0"
       y2="268.33" />
    <radialGradient
       inkscape:collect="always"
       xlink:href="#linearGradient3844"
       id="radialGradient3850"
       cx="24.075672"
       cy="41.38316"
       fx="24.075672"
       fy="41.38316"
       r="21.075672"
       gradientTransform="matrix(1,0,0,0.11307633,0,36.703704)"
       gradientUnits="userSpaceOnUse" />
    <linearGradient
       id="linearGradient3844">
      <stop
         style="stop-color:#000000;stop-opacity:0.39215687;"
         offset="0"
         id="stop3846" />
      <stop
         style="stop-color:#000000;stop-opacity:0;"
         offset="1"
         id="stop3848" />
    </linearGradient>
    <radialGradient
       r="21.075672"
       fy="41.38316"
       fx="24.075672"
       cy="41.38316"
       cx="24.075672"
       gradientTransform="matrix(1,0,0,0.11307633,0,36.703704)"
       gradientUnits="userSpaceOnUse"
       id="radialGradient3064"
       xlink:href="#linearGradient3844"
       inkscape:collect="always" />
  </defs>
  <sodipodi:namedview
     pagecolor="#ffffff"
     bordercolor="#666666"
     borderopacity="1"
     objecttolerance="10"
     gridtolerance="10"
     guidetolerance="10"
     inkscape:pageopacity="0"
     inkscape:pageshadow="2"
     inkscape:window-width="1280"
     inkscape:window-height="998"
     id="namedview16"
     showgrid="false"
     inkscape:zoom="16"
     inkscape:cx="27.320861"
     inkscape:cy="13.920106"
     inkscape:window-x="0"
     inkscape:window-y="0"
     inkscape:window-maximized="1"
     inkscape:current-layer="svg2">
    <inkscape:grid
       type="xygrid"
       id="grid3104" />
  </sodipodi:namedview>
  <path
     sodipodi:type="arc"
     style="opacity:0.65;fill:url(#radialGradient3064);fill-opacity:1;stroke:none"
     id="path3842"
     sodipodi:cx="24.075672"
     sodipodi:cy="41.38316"
     sodipodi:rx="21.075672"
     sodipodi:ry="2.3831596"
     d="m 45.151344,41.38316 a 21.075672,2.3831596 0 1 1 -42.151344,0 21.075672,2.3831596 0 1 1 42.151344,0 z"
     transform="matrix(1.1387537,0,0,1.0490275,-3.4162611,-1.9120725)" />
  <path
     sodipodi:nodetypes="ccccccccc"
     inkscape:connector-curvature="0"
     id="path3029-9"
     d="m 3,10 0,28 42,0 0,-14 -2,-12 -16,0 -2,-4.0000001 -20,0 c -1,0 -2,1 -2,2.0000001 z"
     style="fill:#ef6c00;fill-opacity:1;stroke:none" />
  <rect
     style="fill:#fffdf0;fill-opacity:1;stroke:none"
     id="rect3799-5"
     width="21"
     height="7.9999828"
     x="6.0000038"
     y="12.999982" />
  <path
     style="opacity:0.02999998;fill:#000000;fill-opacity:1;stroke:none"
     d="m 5,7.9999999 c -1,0 -2,1 -2,2.0000001 l 0,1 C 3,10 4,8.9999999 5,8.9999999 l 19,0 L 26,13 43,13 45,25 45,24 43,12 27,12 25,7.9999999 z"
     id="path3810-2"
     inkscape:connector-curvature="0"
     sodipodi:nodetypes="sscsccccccccs" />
  <path
     style="fill:#ffa726;fill-opacity:1;stroke:none"
     d="m 45,14 0,28 -42,0 0,-26 20,0 2,-4 18,0 c 1,0 2,1 2,2 z"
     id="rect2987-4"
     inkscape:connector-curvature="0"
     sodipodi:nodetypes="cccccccc" />
  <path
     sodipodi:nodetypes="ccccc"
     id="path3794-5"
     d="m 3,41 0,1 42,0 0,-1 z"
     style="opacity:0.15;fill:#000000;fill-opacity:1;stroke:none"
     inkscape:connector-curvature="0" />
  <path
     style="fill:none;stroke:none"
     d="m 25,13 -5,3 3,0 z"
     id="path3801-9"
     inkscape:connector-curvature="0" />
  <path
     style="opacity:0.02999998;fill:#000000;fill-opacity:1;stroke:none"
     d="m 25,12 -2,4 -20,0 0,1 21,0 2,-4 17,0 c 1,0 2,1 2,2 l 0,-1 c 0,-1 -1,-2 -2,-2 z"
     id="path3805-9"
     inkscape:connector-curvature="0"
     sodipodi:nodetypes="ccccccscssc" />
  <path
     transform="matrix(1.3518142e-4,0,0,1.3004916e-4,14.999784,22)"
     style="opacity:0.4;fill:#3c2f1b;fill-opacity:1;fill-rule:evenodd"
     d="m 22194,115341 23578.025,-38447.001 87383.975,0 -22193,38447 z"
     id="polygon3475-1"
     inkscape:connector-curvature="0"
     sodipodi:nodetypes="ccccc" />
  <path
     transform="matrix(1.3243857e-4,0,0,1.3004916e-4,15.36501,21)"
     style="opacity:0.4;fill:#3c2f1b;fill-opacity:1;fill-rule:evenodd"
     d="m 88772,76894 44384,0 L 88772,0 44385,0 z"
     id="polygon3477-6" />
  <path
     transform="matrix(1.4175204e-4,0,0,1.2815554e-4,14,21.60684)"
     style="opacity:0.4;fill:#3c2f1b;fill-opacity:1;fill-rule:evenodd"
     d="M 65365.495,39056.611 44385,0 0,76894 22194,115341 z"
     id="polygon3479-9"
     inkscape:connector-curvature="0"
     sodipodi:nodetypes="ccccc" />
</svg>

<?xml version="1.0" encoding="UTF-8" standalone="no"?>
<svg
   xmlns:dc="http://purl.org/dc/elements/1.1/"
   xmlns:cc="http://creativecommons.org/ns#"
   xmlns:rdf="http://www.w3.org/1999/02/22-rdf-syntax-ns#"
   xmlns:svg="http://www.w3.org/2000/svg"
   xmlns="http://www.w3.org/2000/svg"
   xmlns:xlink="http://www.w3.org/1999/xlink"
   xmlns:sodipodi="http://sodipodi.sourceforge.net/DTD/sodipodi-0.dtd"
   xmlns:inkscape="http://www.inkscape.org/namespaces/inkscape"
   width="48"
   viewBox="0 0 48 48"
   height="48"
   id="svg2"
   version="1.1"
   inkscape:version="0.91 r"
   sodipodi:docname="default-folder-google-drive.svg">
  <metadata
     id="metadata20">
    <rdf:RDF>
      <cc:Work
         rdf:about="">
        <dc:format>image/svg+xml</dc:format>
        <dc:type
           rdf:resource="http://purl.org/dc/dcmitype/StillImage" />
      </cc:Work>
    </rdf:RDF>
  </metadata>
  <defs
     id="defs18">
    <linearGradient
       x2="0"
       gradientUnits="userSpaceOnUse"
       y2="268.33"
       y1="279.096"
       id="linearGradient3017"
       xlink:href="#linearGradient4460"
       gradientTransform="matrix(1.10525,0,0,1.10525,-134.27881,-295.76193)" />
    <linearGradient
       id="linearGradient4460">
      <stop
         id="stop3462"
         style="stop-color:#1b1b1b"
         offset="0" />
      <stop
         id="stop3464"
         style="stop-color:#383838"
         offset="1" />
    </linearGradient>
    <linearGradient
       inkscape:collect="always"
       xlink:href="#linearGradient4460"
       id="linearGradient3501"
       gradientUnits="userSpaceOnUse"
       gradientTransform="matrix(3.9162401,0,0,3.9162401,-553.078,-1047.9741)"
       y1="279.096"
       x2="0"
       y2="268.33" />
    <radialGradient
       inkscape:collect="always"
       xlink:href="#linearGradient3844"
       id="radialGradient3850"
       cx="24.075672"
       cy="41.38316"
       fx="24.075672"
       fy="41.38316"
       r="21.075672"
       gradientTransform="matrix(1,0,0,0.11307633,0,36.703704)"
       gradientUnits="userSpaceOnUse" />
    <linearGradient
       id="linearGradient3844">
      <stop
         style="stop-color:#000000;stop-opacity:0.39215687;"
         offset="0"
         id="stop3846" />
      <stop
         style="stop-color:#000000;stop-opacity:0;"
         offset="1"
         id="stop3848" />
    </linearGradient>
    <linearGradient
       id="linearGradient3833">
      <stop
         style="stop-color:#fdfeff;stop-opacity:1;"
         offset="0"
         id="stop3835" />
      <stop
         style="stop-color:#dfe4e4;stop-opacity:1;"
         offset="1"
         id="stop3837" />
    </linearGradient>
    <linearGradient
       id="linearGradient3823">
      <stop
         id="stop3825"
         offset="0"
         style="stop-color:#49b7ef;stop-opacity:1;" />
      <stop
         id="stop3827"
         offset="1"
         style="stop-color:#1d8de2;stop-opacity:1;" />
    </linearGradient>
    <linearGradient
       id="linearGradient3956">
      <stop
         id="stop3958"
         offset="0"
         style="stop-color:#f8f4e1;stop-opacity:1;" />
      <stop
         id="stop3960"
         offset="1"
         style="stop-color:#eae5c8;stop-opacity:1;" />
    </linearGradient>
    <linearGradient
       id="linearGradient3915">
      <stop
         id="stop3917"
         offset="0"
         style="stop-color:#f8f4e1;stop-opacity:1;" />
      <stop
         id="stop3919"
         offset="1"
         style="stop-color:#ad9e57;stop-opacity:1;" />
    </linearGradient>
    <linearGradient
       id="linearGradient3810">
      <stop
         id="stop3812"
         offset="0"
         style="stop-color:#f2c66f;stop-opacity:1;" />
      <stop
         id="stop3814"
         offset="1"
         style="stop-color:#fbd68f;stop-opacity:1;" />
    </linearGradient>
    <linearGradient
       gradientUnits="userSpaceOnUse"
       y2="1014.3622"
       x2="24"
       y1="1046.3622"
       x1="24"
       id="linearGradient3816"
       xlink:href="#linearGradient3810"
       inkscape:collect="always" />
    <radialGradient
       gradientUnits="userSpaceOnUse"
       gradientTransform="matrix(1,0,0,0.11307633,-63.300134,17.906008)"
       r="21.075672"
       fy="41.38316"
       fx="24.075672"
       cy="41.38316"
       cx="24.075672"
       id="radialGradient3850-0"
       xlink:href="#linearGradient3844"
       inkscape:collect="always" />
    <linearGradient
       gradientTransform="translate(0,-3)"
       y2="1014.3622"
       x2="24"
       y1="1046.3622"
       x1="24"
       gradientUnits="userSpaceOnUse"
       id="linearGradient3856"
       xlink:href="#linearGradient3810"
       inkscape:collect="always" />
    <linearGradient
       gradientTransform="translate(0,-1004.3622)"
       y2="1014.3622"
       x2="24"
       y1="1046.3622"
       x1="24"
       gradientUnits="userSpaceOnUse"
       id="linearGradient3858"
       xlink:href="#linearGradient3810"
       inkscape:collect="always" />
    <linearGradient
       gradientUnits="userSpaceOnUse"
       y2="28.5625"
       x2="46.004719"
       y1="28.5625"
       x1="1.9952808"
       id="linearGradient3867"
       xlink:href="#linearGradient3844"
       inkscape:collect="always" />
    <linearGradient
       gradientUnits="userSpaceOnUse"
       y2="5"
       x2="38"
       y1="8"
       x1="35"
       id="linearGradient3921"
       xlink:href="#linearGradient3915"
       inkscape:collect="always" />
    <linearGradient
       gradientTransform="matrix(1.0436562,0,0,1.2222222,26.301501,1003.2511)"
       y2="5"
       x2="38"
       y1="8"
       x1="35"
       gradientUnits="userSpaceOnUse"
       id="linearGradient3933"
       xlink:href="#linearGradient3915"
       inkscape:collect="always" />
    <linearGradient
       gradientTransform="translate(22,1004.3622)"
       gradientUnits="userSpaceOnUse"
       y2="5"
       x2="44"
       y1="11"
       x1="35"
       id="linearGradient3954"
       xlink:href="#linearGradient3915"
       inkscape:collect="always" />
    <linearGradient
       gradientUnits="userSpaceOnUse"
       y2="24"
       x2="20"
       y1="14"
       x1="21"
       id="linearGradient3829"
       xlink:href="#linearGradient3823"
       inkscape:collect="always" />
    <linearGradient
       y2="26"
       x2="20"
       y1="14"
       x1="21"
       gradientUnits="userSpaceOnUse"
       id="linearGradient3839"
       xlink:href="#linearGradient3833"
       inkscape:collect="always" />
    <linearGradient
       gradientUnits="userSpaceOnUse"
       y2="30"
       x2="20"
       y1="15"
       x1="22"
       id="linearGradient3862"
       xlink:href="#linearGradient3844"
       inkscape:collect="always" />
  </defs>
  <sodipodi:namedview
     pagecolor="#ffffff"
     bordercolor="#666666"
     borderopacity="1"
     objecttolerance="10"
     gridtolerance="10"
     guidetolerance="10"
     inkscape:pageopacity="0"
     inkscape:pageshadow="2"
     inkscape:window-width="1366"
     inkscape:window-height="747"
     id="namedview16"
     showgrid="false"
     inkscape:zoom="5.6568543"
     inkscape:cx="8.5406309"
     inkscape:cy="32.692812"
     inkscape:window-x="0"
     inkscape:window-y="21"
     inkscape:window-maximized="1"
     inkscape:current-layer="svg2">
    <inkscape:grid
       type="xygrid"
       id="grid3104" />
  </sodipodi:namedview>
  <g
     id="layer3"
     inkscape:label="Blob">
    <ellipse
       ry="2.3831596"
       rx="21.075672"
       cy="41.38316"
       cx="24.075672"
       style="opacity:0.65;fill:url(#radialGradient3850-0);fill-opacity:1;stroke:none"
       id="path3842-5"
       transform="matrix(1.1387537,0,0,1.0490275,-3.4162611,-1.9120725)" />
  </g>
  <path
     style="fill:#ef6c00;fill-opacity:1;stroke:none"
     d="M 3,10 3,38 45,38 45,24 43,12 27,12 25,8 5,8 C 4,8 3,9 3,10 Z"
     id="path3029"
     inkscape:connector-curvature="0"
     sodipodi:nodetypes="ccccccccc" />
  <rect
     y="12.999983"
     x="6"
     height="7.9999828"
     width="21"
     id="rect3799"
     style="fill:#fffdf0;fill-opacity:1;stroke:none" />
  <path
     sodipodi:nodetypes="sscsccccccccs"
     inkscape:connector-curvature="0"
     id="path3810"
     d="M 5,8 C 4,8 3,9 3,10 l 0,1 C 3,10 4,9 5,9 l 19,0 2,4 17,0 2,12 0,-1 -2,-12 -16,0 -2,-4 z"
     style="opacity:0.02999998;fill:#000000;fill-opacity:1;stroke:none" />
  <path
     sodipodi:nodetypes="cccccccc"
     inkscape:connector-curvature="0"
     id="rect2987"
     d="m 45,14 0,28 -42,0 0,-26 20,0 2,-4 18,0 c 1,0 2,1 2,2 z"
     style="fill:#ffa726;fill-opacity:1;stroke:none" />
  <g
     id="g4263"
     transform="translate(0.49999942,0)">
    <path
       sodipodi:nodetypes="ccccc"
       inkscape:connector-curvature="0"
       id="polygon3475-1"
       d="m 22194,115341 23578.025,-38447.001 87383.975,0 L 110963,115341 Z"
       style="opacity:0.4;fill:#3c2f1b;fill-opacity:1;fill-rule:evenodd"
       transform="matrix(1.3518142e-4,0,0,1.3004916e-4,14.999784,22)" />
    <path
       id="polygon3477-6"
       d="m 88772,76894 44384,0 L 88772,0 44385,0 Z"
       style="opacity:0.4;fill:#3c2f1b;fill-opacity:1;fill-rule:evenodd"
       transform="matrix(1.3243857e-4,0,0,1.3004916e-4,15.36501,21)"
       inkscape:connector-curvature="0" />
    <path
       sodipodi:nodetypes="ccccc"
       inkscape:connector-curvature="0"
       id="polygon3479-9"
       d="M 65365.495,39056.611 44385,0 0,76894 22194,115341 Z"
       style="opacity:0.4;fill:#3c2f1b;fill-opacity:1;fill-rule:evenodd"
       transform="matrix(1.4175204e-4,0,0,1.2815554e-4,14,21.60684)" />
  </g>
  <path
     inkscape:connector-curvature="0"
     style="opacity:0.15;fill:#000000;fill-opacity:1;stroke:none"
     d="m 3,41 0,1 42,0 0,-1 z"
     id="path3794"
     sodipodi:nodetypes="ccccc" />
  <path
     inkscape:connector-curvature="0"
     id="path3801"
     d="m 25,13 -5,3 3,0 z"
     style="fill:none;fill-opacity:1;stroke:none;stroke-width:1px;stroke-linecap:butt;stroke-linejoin:miter;stroke-opacity:1" />
  <path
     sodipodi:nodetypes="ccccccscssc"
     inkscape:connector-curvature="0"
     id="path3805"
     d="m 25,12 -2,4 -20,0 0,1 21,0 2,-4 17,0 c 1,0 2,1 2,2 l 0,-1 c 0,-1 -1,-2 -2,-2 z"
     style="opacity:0.02999998;fill:#000000;fill-opacity:1;stroke:none" />
</svg>
